X:10396
T:Martin Wynne's
R:Reel
S:
H:
N:
D:
Z:Adrian Scahill
M:2/2
L:1/8
K:G
dged B2Ac|BGdG EAA2|BGBd cdeg|fgaf g3e|\
dged B2Ac|BGdG EAA2|BGBd cdeg|fgaf g3e:||\
g3a gfeB|d2ed BGBc|dggf gfeB|dega bgaf|\
g3a gfeB|d2 ed BGBc|dggf gfeg|fgaf g4:||
